X: 534
T:Eileen Ni Riordan (in G)
M:3/4
L:1/8
S:Neil Baillie
R:Waltz
N:Posted to the woodenflute mailing list June 2002
Z:Andrew Pickering
K:G
Bc|(d2 d)e dc|B2 G2 AB|c2 cB AG|F2 D2 EF|
(G2 G)A GD|EF GA Bc|1 d2 g2 gf|gf d2:|2 d2 g2 f2|g4||
ef|(g2 g)f gd|cd c_B G2|(=f2 f)c AG|=F2 GF D2|
G2 D2 G2|AB c2 A2|1 d2 g2 gf|gf d2:|2 d2 g2 f2|g4||
<end>
<start>
